installation_stuff/logdoctor.svg

<?xml version="1.0" encoding="UTF-8"?>
<svg xmlns="http://www.w3.org/2000/svg" xmlns:xlink="http://www.w3.org/1999/xlink" width="512" height="512" viewBox="0 0 512 512">
<path fill-rule="evenodd" fill="rgb(75.686276%, 68.627453%, 50.588238%)" fill-opacity="1" stroke-width="83.149605" stroke-linecap="butt" stroke-linejoin="miter" stroke="rgb(100%, 100%, 100%)" stroke-opacity="1" stroke-miterlimit="4" d="M 0.0117188 0.00390625 L 511.996094 0.00390625 L 511.996094 511.996094 L 0.0117188 511.996094 Z M 0.0117188 0.00390625 "/>
<path fill-rule="nonzero" fill="rgb(5.490196%, 7.843138%, 0%)" fill-opacity="1" stroke-width="1" stroke-linecap="butt" stroke-linejoin="miter" stroke="rgb(0%, 0%, 0%)" stroke-opacity="1" stroke-miterlimit="4" d="M 142.058594 318.785156 C 142.058594 318.785156 153.234375 327.972656 156.53125 334.199219 C 165.1875 350.546875 159.242188 372.421875 168.640625 388.351562 C 179.820312 407.304688 182.175781 424.359375 192.339844 443.878906 C 205.976562 470.074219 212.234375 526.4375 212.234375 526.4375 L 298.894531 505.5 L 347.484375 246.320312 L 190.441406 277.757812 Z M 142.058594 318.785156 "/>
<path fill-rule="nonzero" fill="rgb(9.019608%, 14.117648%, 0%)" fill-opacity="1" stroke-width="1" stroke-linecap="butt" stroke-linejoin="miter" stroke="rgb(0%, 0%, 0%)" stroke-opacity="1" stroke-miterlimit="4" d="M 111.992188 259.03125 C 111.992188 259.03125 73.335938 271 48.265625 303.984375 C 34.28125 322.386719 24.121094 368.757812 26.320312 369.753906 C 36.597656 361.027344 52.824219 344.878906 69.246094 338.035156 C 99.917969 325.25 147.007812 315.183594 147.007812 315.183594 Z M 111.992188 259.03125 "/>
<path fill-rule="nonzero" fill="rgb(86.274511%, 82.745099%, 73.333335%)" fill-opacity="1" stroke-width="1" stroke-linecap="butt" stroke-linejoin="miter" stroke="rgb(0%, 0%, 0%)" stroke-opacity="1" stroke-miterlimit="4" d="M 156.074219 180.992188 C 156.074219 180.992188 156.265625 211.25 149.054688 223.867188 C 140.757812 238.378906 114.601562 252.253906 111.914062 257.566406 C 123.132812 279.585938 139.636719 302.164062 140.601562 317.917969 C 154.953125 322.359375 183.402344 328.984375 185.761719 327.09375 C 195.578125 322.621094 208.960938 304.386719 226.675781 295 C 251.191406 282.015625 304.738281 276.332031 304.738281 276.332031 L 308.441406 172.316406 Z M 156.074219 180.992188 "/>
<path fill-rule="nonzero" fill="rgb(9.411765%, 14.901961%, 0%)" fill-opacity="1" stroke-width="1" stroke-linecap="butt" stroke-linejoin="miter" stroke="rgb(0%, 0%, 0%)" stroke-opacity="1" stroke-miterlimit="4" d="M 419.675781 192.65625 C 419.675781 192.65625 440.433594 244.003906 441.027344 289.460938 C 441.535156 328.257812 429.484375 411.960938 422.554688 445.675781 C 420.515625 455.613281 416.078125 456.4375 416.078125 456.4375 C 416.078125 456.4375 426.84375 461.996094 428.910156 467.175781 C 430.742188 471.761719 427.214844 481.898438 427.214844 481.898438 C 427.214844 481.898438 434.488281 488.363281 436.335938 492.535156 C 445.808594 513.941406 454.632812 560.839844 454.632812 560.839844 L 149.242188 554.734375 C 149.242188 554.734375 145.253906 527.054688 166.855469 482.875 C 177.972656 460.140625 236.128906 418.949219 244.25 404.007812 C 269.769531 357.058594 287.632812 293.621094 285.292969 243.867188 C 283.511719 206.03125 268.976562 176.992188 268.976562 176.992188 C 308.804688 172.199219 371.671875 188.066406 419.675781 192.65625 Z M 419.675781 192.65625 "/>
<path fill-rule="nonzero" fill="rgb(5.490196%, 7.843138%, 0%)" fill-opacity="1" stroke-width="1" stroke-linecap="butt" stroke-linejoin="miter" stroke="rgb(0%, 0%, 0%)" stroke-opacity="1" stroke-miterlimit="4" d="M 422.390625 194.660156 C 371.972656 191.21875 324.507812 182.808594 274.855469 181.769531 C 224.121094 180.710938 205.1875 182.335938 155.140625 183.4375 C 140.925781 169.546875 116.203125 125.308594 122.734375 118.5 C 142.363281 110.054688 170.980469 104.082031 170.980469 104.082031 C 170.980469 104.082031 175.148438 82.460938 181.527344 81.398438 C 265.410156 67.4375 314.363281 75.441406 383.367188 78.796875 C 387.242188 78.988281 386.929688 87.429688 386.929688 87.429688 C 386.929688 87.429688 455.332031 84.488281 494.757812 88.574219 C 448.96875 132.917969 422.390625 194.660156 422.390625 194.660156 Z M 422.390625 194.660156 "/>
<path fill-rule="nonzero" fill="rgb(5.490196%, 7.843138%, 0%)" fill-opacity="1" stroke-width="1" stroke-linecap="butt" stroke-linejoin="miter" stroke="rgb(0%, 0%, 0%)" stroke-opacity="1" stroke-miterlimit="4" d="M 144.886719 231.644531 C 144.886719 231.644531 156.347656 233.875 160.691406 237.425781 C 167.808594 243.242188 172.148438 251.058594 179.785156 256.167969 C 189.453125 262.636719 210.667969 263.988281 220.578125 256.8125 C 241.445312 241.699219 242.324219 219.65625 227.851562 200.640625 C 216.535156 185.765625 190.980469 185.910156 178.570312 194.539062 C 166.160156 203.167969 164.679688 211.101562 162.550781 220.941406 C 159.632812 223.234375 150.25 221.101562 150.25 221.101562 C 150.25 221.101562 145.421875 222.742188 144.335938 224.9375 C 143.28125 227.066406 144.886719 231.644531 144.886719 231.644531 Z M 144.886719 231.644531 "/>
<path fill-rule="nonzero" fill="rgb(86.666667%, 83.137256%, 73.333335%)" fill-opacity="1" stroke-width="1" stroke-linecap="butt" stroke-linejoin="miter" stroke="rgb(0%, 0%, 0%)" stroke-opacity="1" stroke-miterlimit="4" d="M 162.058594 124.296875 C 157.230469 127.199219 155.78125 150.089844 153.832031 168.246094 C 140.109375 154.125 125.804688 125.226562 125.804688 125.226562 C 125.800781 125.21875 134.910156 153.226562 155.339844 172.527344 C 158.117188 158.566406 160.828125 131.816406 165.433594 127.433594 C 177.527344 122.285156 282.824219 100.996094 282.824219 100.996094 C 282.824219 100.996094 172.621094 120.042969 162.058594 124.296875 Z M 162.058594 124.296875 "/>
</svg>

<?xml version="1.0" encoding="UTF-8" standalone="no"?>
<!-- Created with Inkscape (http://www.inkscape.org/) -->

<svg
   width="512.0px"
   height="512.0px"
   viewBox="0 0 512.0 512.0"
   version="1.1"
   id="SVGRoot"
   sodipodi:docname="icona512_bg.svg"
   inkscape:version="1.2.1 (9c6d41e410, 2022-07-14)"
   xmlns:inkscape="http://www.inkscape.org/namespaces/inkscape"
   xmlns:sodipodi="http://sodipodi.sourceforge.net/DTD/sodipodi-0.dtd"
   xmlns="http://www.w3.org/2000/svg"
   xmlns:svg="http://www.w3.org/2000/svg">
  <sodipodi:namedview
     id="namedview137"
     pagecolor="#505050"
     bordercolor="#ffffff"
     borderopacity="1"
     inkscape:showpageshadow="0"
     inkscape:pageopacity="0"
     inkscape:pagecheckerboard="1"
     inkscape:deskcolor="#505050"
     inkscape:document-units="px"
     showgrid="false"
     inkscape:zoom="0.97324928"
     inkscape:cx="443.36021"
     inkscape:cy="264.57764"
     inkscape:window-width="1848"
     inkscape:window-height="1025"
     inkscape:window-x="72"
     inkscape:window-y="31"
     inkscape:window-maximized="1"
     inkscape:current-layer="layer3">
    <inkscape:grid
       type="xygrid"
       id="grid260" />
  </sodipodi:namedview>
  <defs
     id="defs132" />
  <g
     inkscape:groupmode="layer"
     id="layer6"
     inkscape:label="Livello 6">
    <rect
       style="display:inline;fill:#c1af81;fill-opacity:1;fill-rule:evenodd;stroke:#ffffff;stroke-width:83.1496063;stroke-dasharray:none;stroke-opacity:1"
       id="rect2774"
       width="511.98434"
       height="511.99252"
       x="0.0099176168"
       y="0.0053544641"
       ry="0" />
    <path
       style="display:inline;fill:#0e1400;fill-opacity:1;stroke:#000000;stroke-width:1px;stroke-linecap:butt;stroke-linejoin:miter;stroke-opacity:1"
       d="m 142.05904,318.78709 c 0,0 11.17542,9.18366 14.47332,15.41189 8.65542,16.34613 2.70852,38.22123 12.10644,54.15206 11.18202,18.95514 13.53541,36.00934 23.70004,55.52895 13.63945,26.19245 19.89601,82.5583 19.89601,82.5583 l 86.65957,-20.93972 48.58914,-259.17724 -157.04199,31.43669 z"
       id="path1941"
       sodipodi:nodetypes="csssccccc" />
  </g>
  <g
     inkscape:groupmode="layer"
     id="layer5"
     inkscape:label="Livello 5">
    <path
       style="fill:#172400;fill-opacity:1;stroke:#000000;stroke-width:1px;stroke-linecap:butt;stroke-linejoin:miter;stroke-opacity:1"
       d="m 111.99031,259.03144 c 0,0 -38.654906,11.96696 -63.726365,44.95385 -13.984495,18.3996 -24.144764,64.77066 -21.944351,65.76816 10.27814,-8.72532 26.503531,-24.87316 42.9249,-31.71732 30.674213,-12.78451 77.763946,-22.85421 77.763946,-22.85421 z"
       id="path1938"
       sodipodi:nodetypes="cscccc" />
  </g>
  <g
     inkscape:groupmode="layer"
     id="layer3"
     inkscape:label="Livello 3">
    <path
       style="fill:#dcd3bb;fill-opacity:1;stroke:#000000;stroke-width:1px;stroke-linecap:butt;stroke-linejoin:miter;stroke-opacity:1"
       d="m 156.07608,180.99128 c 0,0 0.18796,30.25944 -7.02143,42.87422 -8.29509,14.51452 -34.4533,28.38786 -37.14057,33.70113 11.21956,22.01879 27.7241,44.59609 28.68712,60.35109 14.35001,4.44292 42.80307,11.06718 45.16163,9.17417 9.81337,-4.47165 23.19949,-22.70625 40.91338,-32.0906 24.51335,-12.98653 78.06207,-18.66815 78.06207,-18.66815 l 3.70497,-104.0164 z"
       id="path1873"
       sodipodi:nodetypes="cscccsccc" />
  </g>
  <g
     inkscape:label="Livello 1"
     inkscape:groupmode="layer"
     id="layer1">
    <path
       style="fill:#182600;fill-opacity:1;stroke:#000000;stroke-width:1px;stroke-linecap:butt;stroke-linejoin:miter;stroke-opacity:1"
       d="m 419.67495,192.65695 c 0,0 20.75765,51.34593 21.3529,96.80395 0.50803,38.79692 -11.54438,122.49998 -18.47213,156.216 -2.04144,9.93526 -6.47651,10.76234 -6.47651,10.76234 0,0 10.7627,5.55625 12.83002,10.73514 1.83142,4.58791 -1.69256,14.72284 -1.69256,14.72284 0,0 7.2728,6.46748 9.11901,10.63951 9.47196,21.40453 18.29752,68.30257 18.29752,68.30257 l -305.39021,-6.10383 c 0,0 -3.99048,-27.67925 17.61428,-71.86171 11.11706,-22.73476 69.27139,-63.92573 77.39181,-78.86415 25.52225,-46.95112 43.38404,-110.38934 41.04314,-160.14099 -1.78028,-37.83663 -16.31669,-66.87803 -16.31669,-66.87803 39.82978,-4.79015 102.69799,11.07394 150.69942,15.66636 z"
       id="path380"
       sodipodi:nodetypes="csscscsccssscc" />
  </g>
  <g
     inkscape:groupmode="layer"
     id="layer2"
     inkscape:label="Livello 2">
    <path
       style="fill:#0e1400;fill-opacity:1;stroke:#000000;stroke-width:1px;stroke-linecap:butt;stroke-linejoin:miter;stroke-opacity:1"
       d="m 422.39215,194.66109 c -50.41994,-3.4431 -97.884,-11.85374 -147.53503,-12.8906 -50.73635,-1.05953 -69.67055,0.56654 -119.71727,1.66514 -14.21291,-13.8878 -38.93772,-58.12816 -32.40381,-64.93651 19.6256,-8.4448 48.24615,-14.41861 48.24615,-14.41861 0,0 4.16811,-21.619014 10.54352,-22.680135 83.88254,-13.961375 132.83586,-5.958187 201.83992,-2.601744 3.87473,0.188472 3.56435,8.629146 3.56435,8.629146 0,0 68.40396,-2.940681 107.82689,1.146534 -45.78945,44.343659 -72.36472,106.086779 -72.36472,106.086779 z"
       id="path587"
       sodipodi:nodetypes="cscccssccc" />
    <path
       style="fill:#0e1400;fill-opacity:1;stroke:#000000;stroke-width:1px;stroke-linecap:butt;stroke-linejoin:miter;stroke-opacity:1"
       d="m 144.8885,231.64331 c 0,0 11.45956,2.23338 15.80291,5.7829 7.11681,5.81609 11.456,13.63098 19.09466,18.74242 9.66798,6.46936 30.88139,7.82118 40.79363,0.64292 20.86699,-15.11148 21.74267,-37.15481 7.27141,-56.17285 -11.3165,-14.87207 -36.8694,-14.72857 -49.27998,-6.09975 -12.41058,8.62883 -13.88996,16.5607 -16.02127,26.40159 -2.91552,2.29435 -12.29904,0.15924 -12.29904,0.15924 0,0 -4.82862,1.64316 -5.91569,3.83849 -1.05457,2.12968 0.55337,6.70504 0.55337,6.70504 z"
       id="path1875"
       sodipodi:nodetypes="csssssccsc" />
  </g>
  <g
     inkscape:groupmode="layer"
     id="layer4"
     inkscape:label="Livello 4">
    <path
       style="fill:#ddd4bb;fill-opacity:1;stroke:#000000;stroke-width:1px;stroke-linecap:butt;stroke-linejoin:miter;stroke-opacity:1"
       d="m 162.05991,124.29681 c -4.83002,2.90376 -6.27985,25.79183 -8.22654,43.94773 -13.72215,-14.12084 -28.02959,-43.01969 -28.02959,-43.01969 -0.003,-0.006 9.10613,28.00171 29.53467,47.30081 2.78062,-13.95972 5.48833,-40.71018 10.09376,-45.09198 12.09668,-5.14756 117.39192,-26.43795 117.39192,-26.43795 0,0 -110.20307,19.04579 -120.76422,23.30108 z"
       id="path1943"
       sodipodi:nodetypes="ccccccc" />
  </g>
</svg>
